src/images/icons/phone-white-icon.svg

<svg width="25" height="24" viewBox="0 0 25 24" fill="none" xmlns="http://www.w3.org/2000/svg">
<path fill-rule="evenodd" clip-rule="evenodd" d="M5.7116 2.24996C5.73313 2.24997 5.75491 2.24998 5.77697 2.24998C5.7973 2.24998 5.81737 2.24998 5.83717 2.24997C6.16931 2.24982 6.42764 2.24971 6.66634 2.29183C7.56576 2.45055 8.32769 3.04545 8.69981 3.87952C8.79857 4.10087 8.86111 4.35152 8.94153 4.67378C8.94632 4.69299 8.95118 4.71246 8.95611 4.73219L9.4913 6.87294C9.5003 6.90893 9.50921 6.94446 9.51802 6.97955C9.66868 7.58009 9.78699 8.05165 9.74442 8.51885C9.70703 8.92934 9.57783 9.32617 9.3664 9.67999C9.12574 10.0827 8.7525 10.3942 8.27715 10.791C8.24937 10.8141 8.22125 10.8376 8.19279 10.8614L6.196 12.5308C7.49931 14.8902 9.35979 16.7507 11.7192 18.054L13.3886 16.0572C13.4124 16.0287 13.4358 16.0006 13.459 15.9728C13.8557 15.4975 14.1673 15.1242 14.57 14.8836C14.9238 14.6721 15.3206 14.5429 15.7311 14.5055C16.1983 14.463 16.6699 14.5813 17.2704 14.7319C17.3055 14.7407 17.341 14.7497 17.377 14.7587L19.5178 15.2939C19.5375 15.2988 19.557 15.3036 19.5762 15.3084C19.8984 15.3889 20.1491 15.4514 20.3704 15.5502C21.2045 15.9223 21.7994 16.6842 21.9581 17.5836C22.0003 17.8223 22.0001 18.0807 22 18.4128C22 18.4326 22 18.4527 22 18.473C22 18.4951 22 18.5168 22 18.5384C22.0002 18.9214 22.0004 19.2236 21.9338 19.5215C21.6917 20.6054 20.6884 21.5156 19.586 21.6514C19.2836 21.6886 19.0238 21.6631 18.7005 21.6314C18.6851 21.6299 18.6695 21.6284 18.6537 21.6268C16.0141 21.3693 13.6384 20.7099 11.5691 19.6701C8.49498 18.1255 6.12444 15.755 4.57982 12.6808C3.54011 10.6116 2.88066 8.2359 2.62312 5.59623C2.62158 5.58049 2.62005 5.5649 2.61854 5.54945C2.58685 5.22622 2.56138 4.96636 2.59861 4.66395C2.73433 3.56158 3.64454 2.55825 4.72851 2.31612C5.02636 2.24959 5.32858 2.24976 5.7116 2.24996ZM13.1076 18.7318C14.7881 19.452 16.6899 19.9281 18.7994 20.1339C19.1859 20.1716 19.2816 20.1775 19.4027 20.1626C19.8755 20.1044 20.3661 19.6593 20.4699 19.1945C20.4958 19.0784 20.5 18.9514 20.5 18.473C20.5 18.0524 20.4972 17.9363 20.481 17.8443C20.4088 17.4355 20.1384 17.0891 19.7593 16.92C19.674 16.8819 19.5621 16.8511 19.154 16.7491L17.0132 16.2139C16.2541 16.0241 16.048 15.9829 15.8672 15.9994C15.6806 16.0164 15.5002 16.0751 15.3394 16.1712C15.1836 16.2643 15.0412 16.419 14.5394 17.0193L13.1076 18.7318ZM5.51816 11.1423L7.23068 9.7106C7.83097 9.20875 7.98567 9.06635 8.07878 8.91055C8.17489 8.74972 8.23361 8.56934 8.25061 8.38276C8.26708 8.202 8.22586 7.99582 8.03609 7.23675L7.5009 5.09599C7.39888 4.68791 7.36802 4.57598 7.32997 4.49068C7.16082 4.11156 6.81449 3.84115 6.40566 3.76901C6.31368 3.75277 6.1976 3.74998 5.77697 3.74998C5.29854 3.74998 5.1716 3.75412 5.05551 3.78005C4.59062 3.88389 4.14558 4.37446 4.08737 4.84724C4.07246 4.96837 4.07832 5.0641 4.11603 5.45058C4.32185 7.56011 4.79801 9.46188 5.51816 11.1423Z" fill="white"/>
</svg>

<svg width="25" height="24" fill="none" xmlns="http://www.w3.org/2000/svg"><path fill-rule="evenodd" clip-rule="evenodd" d="M5.712 2.25h.125c.332 0 .59 0 .83.042A2.75 2.75 0 0 1 8.7 3.88c.099.22.161.472.242.794l.014.058.535 2.14.027.108c.15.6.269 1.072.226 1.539a2.75 2.75 0 0 1-.378 1.161c-.24.403-.614.714-1.089 1.111l-.084.07-1.997 1.67a13.897 13.897 0 0 0 5.523 5.523l1.67-1.997.07-.084c.397-.476.708-.849 1.111-1.09.354-.21.75-.34 1.161-.377.467-.043.939.075 1.54.226l.106.027 2.14.535.06.014c.321.08.572.143.793.242a2.75 2.75 0 0 1 1.588 2.034c.042.238.042.497.042.829v.125c0 .383 0 .686-.066.983-.242 1.084-1.246 1.995-2.348 2.13-.302.038-.562.012-.885-.02l-.047-.004c-2.64-.258-5.016-.917-7.085-1.957-3.074-1.545-5.445-3.915-6.99-6.99-1.039-2.068-1.698-4.444-1.956-7.084L2.62 5.55c-.032-.323-.058-.583-.02-.885.135-1.102 1.046-2.106 2.13-2.348.297-.066.6-.066.983-.066Zm7.396 16.482c1.68.72 3.582 1.196 5.691 1.402.387.038.483.043.604.029.473-.059.963-.504 1.067-.968.026-.117.03-.244.03-.722 0-.42-.003-.537-.019-.629a1.25 1.25 0 0 0-.722-.924c-.085-.038-.197-.069-.605-.17l-2.14-.536c-.76-.19-.966-.231-1.147-.215a1.25 1.25 0 0 0-.528.172c-.155.093-.298.248-.8.848l-1.431 1.713Zm-7.59-7.59 1.713-1.431c.6-.502.755-.645.848-.8a1.25 1.25 0 0 0 .172-.528c.016-.181-.025-.387-.215-1.146l-.535-2.141c-.102-.408-.133-.52-.171-.605a1.25 1.25 0 0 0-.924-.722c-.092-.016-.208-.019-.629-.019-.478 0-.605.004-.721.03-.465.104-.91.594-.969 1.067-.015.121-.009.217.029.604.206 2.11.682 4.01 1.402 5.691Z" fill="#fff"/></svg>
